X: 13
T: Glen Of Aherlow, The
C: Sean Ryan
Z: Bregolas
S: https://thesession.org/tunes/496#setting49725
R: reel
M: 4/4
L: 1/8
K: Emin
|:~B2 AF BFAF|~E3F EDB,D|B/B/B AF dFAF|DFAF {G}FE E2|
B/B/B AF BFAF|~E3F EDB,A,|B,E~E2 B,EGB|dBAF GE E2:|
|:eB~B2 ef{a}ge|fd~d2 Adfd|eB~B2 eg{fg}fe|d/d/B AF GE E2|
eB~B2 efga|fd~d2 Adfd|~B3d e/f/g fe|dBAF GE E2:|

